X:306
T: Auf Hirten, auf erwacht ... (4-7), S. 9
N: P0568
O: Lothringen
S: PINCK, Louis: Verklingende Weisen Bd 4, Kassel 1939]
R: geistliches, religiöses Lied]
M: 6/8
L: 1/8
K: A
E | AcEAcE | A2ce2
c | BdEEFG | A4-A
E | AcEAcE | A2ce2
c | BdEEFG | A4-A
e | d2cB2e | c2AE2e | c2AE2
e | d2cdfe | c4-c
E | AcEAcE | A2ce2
c | BdEEFG | A4-A

